images/sesame_oil.svg

<?xml version="1.0" encoding="UTF-8"?>
<svg width="29px" height="90px" viewBox="0 0 29 90" version="1.1" xmlns="http://www.w3.org/2000/svg" xmlns:xlink="http://www.w3.org/1999/xlink">
    <!-- Generator: Sketch 42 (36781) - http://www.bohemiancoding.com/sketch -->
    <title>sesame_oil</title>
    <desc>Created with Sketch.</desc>
    <defs></defs>
    <g id="Page-1" stroke="none" stroke-width="1" fill="none" fill-rule="evenodd">
        <g id="sesame_oil" transform="translate(0.983100, 0.000000)">
            <rect id="Rectangle-8" fill="#FEF153" x="5.6043956" y="0" width="16.4835165" height="13.8461538"></rect>
            <path d="M13.8461538,89.9099198 L13.8461538,13.8461538 L6.3107676,13.8461538 C6.3107676,13.8461538 6.73291603,18.284285 6.65328515,18.5169791 C6.57365428,18.7496733 6.34859735,18.9690541 6.34859735,18.9690541 C4.06236254,22.0531075 2.68366078,27.581024 3.27959959,31.3541193 L3.8616547,35.0393121 C4.45712283,38.8094274 4.44530088,44.927538 3.83419833,48.6978385 C3.83419833,48.6978385 -0.882101094,75.901404 0.145451577,85.9103153 C4.94064165,90.5810863 13.8459469,89.9099354 13.8461538,89.9099198 C13.8472114,89.9099995 22.751895,90.5808633 27.5468561,85.9103153 C28.5744088,75.901404 23.8581094,48.6978385 23.8581094,48.6978385 C23.2470068,44.927538 23.2351849,38.8094274 23.830653,35.0393121 L24.4127081,31.3541193 C25.0086469,27.581024 23.6299452,22.0531075 21.3437103,18.9690541 C21.3437103,18.9690541 21.1186534,18.7496733 21.0390225,18.5169791 C20.9593917,18.284285 21.3815401,13.8461538 21.3815401,13.8461538 L13.8461538,13.8461538 L13.8461538,89.9099198 Z" id="Combined-Shape" fill="#EFF6FD"></path>
            <path d="M14.010989,89.2525374 L14.010989,14.8351648 L7.28278461,14.8351648 C7.28278461,14.8351648 7.65971299,19.1768148 7.58861208,19.4044504 C7.51751118,19.632086 7.10452833,20.168053 7.10452833,20.168053 C5.1843255,22.9963126 4.0083155,28.0224641 4.49614083,31.4063949 L5.17618883,36.1237297 C5.66366377,39.5052299 5.65396658,44.9832665 5.15374695,48.3538381 C5.15374695,48.3538381 0.860407685,75.5413878 1.7778901,85.3327141 C6.05935301,89.9018698 14.0105369,89.2525743 14.010989,89.2525374 C14.0112506,89.2525588 21.9625737,89.9019245 26.2440879,85.3327141 C27.1615703,75.5413878 22.8682311,48.3538381 22.8682311,48.3538381 C22.3680114,44.9832665 22.3583143,39.5052299 22.8457892,36.1237297 L23.5258372,31.4063949 C24.0136625,28.0224641 22.8376525,22.9963126 20.9174497,20.168053 C20.9174497,20.168053 20.5044668,19.632086 20.4333659,19.4044504 C20.362265,19.1768148 20.7391934,14.8351648 20.7391934,14.8351648 L14.010989,14.8351648 L14.010989,89.2525374 Z" id="Combined-Shape-Copy-3" fill="#A56328"></path>
            <path d="M13.8461538,41.8681319 L13.8461538,70.5483904 C8.53141315,70.4796818 6.59340659,67.0813407 6.59340659,63.2967033 L1.5968973,63.6089851 C2.64943229,55.5315566 3.83419833,48.6978385 3.83419833,48.6978385 C4.13976501,46.8125932 4.29549643,44.3403361 4.30039126,41.8681319 L13.8461538,41.8681319 Z M23.3919164,41.8681319 C23.3968113,44.3403361 23.5525427,46.8125932 23.8581094,48.6978385 C23.8581094,48.6978385 25.0408447,55.5198434 26.0927028,63.5882115 L21.4285714,63.2967033 C21.4285714,67.1202131 19.4505495,70.5494505 14.010989,70.5494505 C13.9556867,70.5494505 13.9007422,70.5490961 13.8461538,70.5483904 L13.8461538,41.8681319 L23.3919164,41.8681319 Z" id="Combined-Shape" fill="#312E15"></path>
            <path d="M13.8919279,43.1868132 L13.8919279,69.1858485 C8.59781492,69.1234487 7.62895257,66.0428593 7.62895257,62.6121005 L1.63499493,62.8981159 C2.64887063,55.8714283 3.77288599,50.0092896 3.77288599,50.0092896 C4.10848616,48.1250912 4.27928471,45.6558389 4.28402229,43.1868132 L13.8919279,43.1868132 Z M23.4998334,43.1868132 C23.504571,45.6558389 23.6753695,48.1250912 24.0109697,50.0092896 C24.0109697,50.0092896 25.1332965,55.8626217 26.146575,62.8822779 L20.4845325,62.6121005 C20.4845325,66.0781635 19.4956274,69.1868132 14.0567425,69.1868132 C14.0013439,69.1868132 13.9464068,69.1864907 13.8919279,69.1858485 L13.8919279,43.1868132 L23.4998334,43.1868132 Z" id="Combined-Shape-Copy-4" fill="#C4BB86"></path>
            <path d="M13.9041925,68.1356859 L13.9041925,44.1868132 L5.05368953,44.1868132 C5.04949679,46.4620213 4.89216769,48.7360167 4.58309107,50.471301 C4.58309107,50.471301 3.54771032,55.8711787 2.61378412,62.3437746 L8.13508623,62.080313 C8.13508623,65.2405381 9.02754862,68.0782067 13.9041925,68.1356859 Z M25.1924954,62.3291854 C24.2591193,55.8630666 23.2252939,50.471301 23.2252939,50.471301 C22.9162173,48.7360167 22.7588882,46.4620213 22.7546955,44.1868132 L13.9041925,44.1868132 L13.9041925,68.1356859 C13.9543755,68.1362774 14.0049805,68.1365745 14.0560107,68.1365745 C19.0660105,68.1365745 19.9769351,65.2730584 19.9769351,62.080313 L25.1924954,62.3291854 Z" id="Combined-Shape-Copy-7" fill="#312E15"></path>
            <rect id="Rectangle-10" fill="#FFFFFF" x="5.28571429" y="54.3956044" width="17.4599991" height="0.659340659"></rect>
            <path d="M6.49039238,53.6337759 C7.04576641,53.6337759 7.38395506,53.3700508 7.38395506,52.9139615 C7.38395506,52.1445047 6.23287257,52.3120477 6.23287257,52.1165809 C6.23287257,52.0638359 6.2670017,52.0235014 6.39110763,52.0235014 C6.58657447,52.0235014 6.81927309,52.0917597 6.99922668,52.2282762 L7.33431269,51.7845975 C7.09851143,51.5922333 6.7944519,51.4960512 6.45626325,51.4960512 C5.88847862,51.4960512 5.59682969,51.8311372 5.59682969,52.1817365 C5.59682969,52.997733 6.75101483,52.7960608 6.75101483,52.9946303 C6.75101483,53.0752992 6.63931949,53.1063257 6.52141886,53.1063257 C6.24218052,53.1063257 6.0094819,52.988425 5.85434949,52.8394979 L5.52857143,53.3048951 C5.74885945,53.5034646 6.04981633,53.6337759 6.49039238,53.6337759 Z M8.30854423,53.6337759 C7.84004435,53.6337759 7.47393186,53.3390243 7.47393186,52.8457032 C7.47393186,52.4113325 7.80591522,52.0607332 8.28992834,52.0607332 C8.73050439,52.0607332 9.06869305,52.3772033 9.06869305,52.9046535 L9.06869305,53.0194515 L8.05102443,53.0194515 C8.08205091,53.1156336 8.1906436,53.2087131 8.37369985,53.2087131 C8.45747135,53.2087131 8.64363024,53.1683786 8.7180938,53.103223 L8.94768977,53.447617 C8.79876265,53.5748255 8.5319349,53.6337759 8.30854423,53.6337759 Z M8.5381402,52.6657496 C8.52262696,52.600594 8.46988194,52.485796 8.28992834,52.485796 C8.11928269,52.485796 8.06343502,52.5974914 8.04481913,52.6657496 L8.5381402,52.6657496 Z M9.86917629,53.6337759 C10.312855,53.6337759 10.5796827,53.4165905 10.5796827,53.1187363 C10.5796827,52.495104 9.72955712,52.6502364 9.72955712,52.5261304 C9.72955712,52.485796 9.78850743,52.4609748 9.86917629,52.4609748 C10.0429246,52.4609748 10.2166729,52.538541 10.3097523,52.6161072 L10.5145271,52.2530974 C10.3407788,52.1382994 10.1173881,52.0607332 9.86607364,52.0607332 C9.43170289,52.0607332 9.19590162,52.2965345 9.19590162,52.5664649 C9.19590162,53.1931998 10.0460272,53.0101436 10.0460272,53.1528654 C10.0460272,53.1900972 10.0118981,53.218021 9.89710012,53.218021 C9.72955712,53.218021 9.47513996,53.1218389 9.35723933,53.0287595 L9.13384866,53.4041799 C9.29518637,53.5375938 9.5930406,53.6337759 9.86917629,53.6337759 Z M12.2054704,53.5965441 L11.6469937,53.5965441 L11.6469937,53.4538223 C11.5632222,53.5593123 11.380166,53.6337759 11.1940071,53.6337759 C10.9706164,53.6337759 10.6789675,53.4817461 10.6789675,53.1404548 C10.6789675,52.768137 10.9706164,52.662647 11.1940071,52.662647 C11.3894739,52.662647 11.5663249,52.7246999 11.6469937,52.8270873 L11.6469937,52.6719549 C11.6469937,52.5664649 11.5508116,52.485796 11.3677554,52.485796 C11.2281362,52.485796 11.0699011,52.5416437 10.9520005,52.6316205 L10.762739,52.2872265 C10.9644111,52.1258888 11.2436494,52.0607332 11.4701428,52.0607332 C11.8424606,52.0607332 12.2054704,52.1910444 12.2054704,52.6905708 L12.2054704,53.5965441 Z M11.4267057,53.270766 C11.5135798,53.270766 11.6097619,53.2428422 11.6469937,53.1900972 L11.6469937,53.1063257 C11.6097619,53.0535806 11.5135798,53.0256568 11.4267057,53.0256568 C11.3336262,53.0256568 11.2312389,53.0566833 11.2312389,53.1497627 C11.2312389,53.2428422 11.3336262,53.270766 11.4267057,53.270766 Z M14.9885458,53.5965441 L14.9885458,52.5106172 C14.9885458,52.2003524 14.802387,52.0607332 14.5262513,52.0607332 C14.2842447,52.0607332 14.0887779,52.1941471 14.0019037,52.3244583 C13.9336455,52.1382994 13.7816157,52.0607332 13.5706356,52.0607332 C13.3286291,52.0607332 13.1393675,52.1848391 13.0742119,52.2686106 L13.0742119,52.097965 L12.5157352,52.097965 L12.5157352,53.5965441 L13.0742119,53.5965441 L13.0742119,52.6719549 C13.1114437,52.6285178 13.1797019,52.5540543 13.3007052,52.5540543 C13.4279138,52.5540543 13.4713509,52.6316205 13.4713509,52.7215973 L13.4713509,53.5965441 L14.0298275,53.5965441 L14.0298275,52.6719549 C14.0670593,52.6285178 14.1353176,52.5540543 14.2594235,52.5540543 C14.3835294,52.5540543 14.4300692,52.6316205 14.4300692,52.7215973 L14.4300692,53.5965441 L14.9885458,53.5965441 Z M16.0310357,53.6337759 C15.5625358,53.6337759 15.1964233,53.3390243 15.1964233,52.8457032 C15.1964233,52.4113325 15.5284066,52.0607332 16.0124198,52.0607332 C16.4529958,52.0607332 16.7911845,52.3772033 16.7911845,52.9046535 L16.7911845,53.0194515 L15.7735158,53.0194515 C15.8045423,53.1156336 15.913135,53.2087131 16.0961913,53.2087131 C16.1799628,53.2087131 16.3661217,53.1683786 16.4405852,53.103223 L16.6701812,53.447617 C16.5212541,53.5748255 16.2544263,53.6337759 16.0310357,53.6337759 Z M16.2606316,52.6657496 C16.2451184,52.600594 16.1923734,52.485796 16.0124198,52.485796 C15.8417741,52.485796 15.7859264,52.5974914 15.7673106,52.6657496 L16.2606316,52.6657496 Z M18.8079058,53.6337759 C18.1687603,53.6337759 17.6754392,53.1994051 17.6754392,52.5633622 C17.6754392,51.9273193 18.1687603,51.4929486 18.8079058,51.4929486 C19.4470513,51.4929486 19.9403724,51.9273193 19.9403724,52.5633622 C19.9403724,53.1994051 19.4470513,53.6337759 18.8079058,53.6337759 Z M18.8079058,53.0815045 C19.1088627,53.0815045 19.3043295,52.8519085 19.3043295,52.5633622 C19.3043295,52.2748159 19.1088627,52.04522 18.8079058,52.04522 C18.5069489,52.04522 18.3114821,52.2748159 18.3114821,52.5633622 C18.3114821,52.8519085 18.5069489,53.0815045 18.8079058,53.0815045 Z M20.4305908,51.9893723 C20.6043391,51.9893723 20.7439583,51.8497531 20.7439583,51.6760048 C20.7439583,51.5022565 20.6043391,51.3626374 20.4305908,51.3626374 C20.2568425,51.3626374 20.1172234,51.5022565 20.1172234,51.6760048 C20.1172234,51.8497531 20.2568425,51.9893723 20.4305908,51.9893723 Z M20.7098292,53.5965441 L20.7098292,52.097965 L20.1513525,52.097965 L20.1513525,53.5965441 L20.7098292,53.5965441 Z M21.5785707,53.5965441 L21.5785707,51.5270777 L21.020094,51.5270777 L21.020094,53.5965441 L21.5785707,53.5965441 Z" id="Sesame-Oil" fill="#2E9C30"></path>
        </g>
    </g>
</svg>

<?xml version="1.0" encoding="UTF-8" standalone="no"?>
<svg
   xmlns:dc="http://purl.org/dc/elements/1.1/"
   xmlns:cc="http://creativecommons.org/ns#"
   xmlns:rdf="http://www.w3.org/1999/02/22-rdf-syntax-ns#"
   xmlns:svg="http://www.w3.org/2000/svg"
   xmlns="http://www.w3.org/2000/svg"
   xmlns:sodipodi="http://sodipodi.sourceforge.net/DTD/sodipodi-0.dtd"
   xmlns:inkscape="http://www.inkscape.org/namespaces/inkscape"
   width="29px"
   height="90px"
   viewBox="0 0 29 90"
   version="1.1"
   id="svg17161"
   inkscape:version="0.91 r13725"
   sodipodi:docname="sesame_oil.svg">
  <metadata
     id="metadata17182">
    <rdf:RDF>
      <cc:Work
         rdf:about="">
        <dc:format>image/svg+xml</dc:format>
        <dc:type
           rdf:resource="http://purl.org/dc/dcmitype/StillImage" />
      </cc:Work>
    </rdf:RDF>
  </metadata>
  <sodipodi:namedview
     pagecolor="#ffffff"
     bordercolor="#666666"
     borderopacity="1"
     objecttolerance="10"
     gridtolerance="10"
     guidetolerance="10"
     inkscape:pageopacity="0"
     inkscape:pageshadow="2"
     inkscape:window-width="732"
     inkscape:window-height="480"
     id="namedview17180"
     showgrid="false"
     inkscape:zoom="2.6222222"
     inkscape:cx="14.5"
     inkscape:cy="45"
     inkscape:window-x="0"
     inkscape:window-y="0"
     inkscape:window-maximized="0"
     inkscape:current-layer="svg17161" />
  <!-- Generator: Sketch 42 (36781) - http://www.bohemiancoding.com/sketch -->
  <title
     id="title17163">sesame_oil</title>
  <desc
     id="desc17165">Created with Sketch.</desc>
  <defs
     id="defs17167" />
  <g
     id="Page-1"
     style="fill:none;fill-rule:evenodd;stroke:none;stroke-width:1">
    <g
       id="sesame_oil"
       transform="translate(0.9831,0)">
      <rect
         id="Rectangle-8"
         x="5.6043954"
         y="0"
         width="16.483517"
         height="13.846154"
         style="fill:#fef153" />
      <path
         d="m 13.846154,89.90992 0,-76.063766 -7.5353864,0 c 0,0 0.4221484,4.438131 0.3425176,4.670825 -0.079631,0.232694 -0.3046878,0.452075 -0.3046878,0.452075 -2.2862349,3.084053 -3.6649366,8.61197 -3.0689978,12.385065 l 0.5820551,3.685193 c 0.5954681,3.770115 0.5836462,9.888226 -0.027456,13.658527 0,0 -4.71629939,27.203565 -3.68874672,37.212476 4.79519002,4.670771 13.70049502,3.99962 13.70070202,3.999605 0.0011,7.9e-5 8.905741,0.670943 13.700702,-3.999605 1.027553,-10.008911 -3.688747,-37.212476 -3.688747,-37.212476 -0.611102,-3.770301 -0.622924,-9.888412 -0.02746,-13.658527 l 0.582055,-3.685193 c 0.595939,-3.773095 -0.782763,-9.301012 -3.068998,-12.385065 0,0 -0.225057,-0.219381 -0.304687,-0.452075 -0.07963,-0.232694 0.342517,-4.670825 0.342517,-4.670825 l -7.535386,0 0,76.063766 z"
         id="Combined-Shape"
         inkscape:connector-curvature="0"
         style="fill:#eff6fd" />
      <path
         d="m 14.010989,89.252537 0,-74.417372 -6.7282044,0 c 0,0 0.3769284,4.34165 0.3058275,4.569285 -0.071101,0.227636 -0.4840838,0.763603 -0.4840838,0.763603 -1.9202028,2.82826 -3.0962128,7.854411 -2.6083875,11.238342 l 0.680048,4.717335 c 0.487475,3.3815 0.4777778,8.859536 -0.022442,12.230108 0,0 -4.29333932,27.18755 -3.3758569,36.978876 4.2814629,4.569156 12.2326471,3.91986 12.2330991,3.919823 2.62e-4,2.2e-5 7.951585,0.649388 12.233099,-3.919823 C 27.16157,75.541388 22.868231,48.353838 22.868231,48.353838 22.368011,44.983266 22.358314,39.50523 22.845789,36.12373 l 0.680048,-4.717335 c 0.487825,-3.383931 -0.688185,-8.410082 -2.608387,-11.238342 0,0 -0.412983,-0.535967 -0.484084,-0.763603 -0.0711,-0.227635 0.305827,-4.569285 0.305827,-4.569285 l -6.728204,0 0,74.417372 z"
         id="Combined-Shape-Copy-3"
         inkscape:connector-curvature="0"
         style="fill:#a56328" />
      <path
         d="m 13.846154,41.868132 0,28.680258 C 8.5314132,70.479682 6.5934066,67.081341 6.5934066,63.296703 l -4.9965093,0.312282 c 1.052535,-8.077428 2.237301,-14.911146 2.237301,-14.911146 0.3055667,-1.885246 0.4612981,-4.357503 0.466193,-6.829707 l 9.5457627,0 z m 9.545762,0 c 0.0049,2.472204 0.160627,4.944461 0.466193,6.829707 0,0 1.182736,6.822004 2.234594,14.890372 l -4.664132,-0.291508 c 0,3.82351 -1.978022,7.252748 -7.417582,7.252748 -0.0553,0 -0.110247,-3.55e-4 -0.164835,-0.0011 l 0,-28.680258 9.545762,0 z"
         id="path17174"
         inkscape:connector-curvature="0"
         style="fill:#312e15" />
      <path
         d="m 13.891928,43.186813 0,25.999036 C 8.5978149,69.123449 7.6289526,66.042859 7.6289526,62.6121 L 1.6349949,62.898116 C 2.6488706,55.871428 3.772886,50.00929 3.772886,50.00929 4.1084862,48.125091 4.2792847,45.655839 4.2840223,43.186813 l 9.6079057,0 z m 9.607905,0 c 0.0047,2.469026 0.175536,4.938278 0.511137,6.822477 0,0 1.122326,5.853332 2.135605,12.872988 L 20.484532,62.6121 c 0,3.466064 -0.988905,6.574713 -6.427789,6.574713 -0.0554,0 -0.110336,-3.22e-4 -0.164815,-9.64e-4 l 0,-25.999036 9.607905,0 z"
         id="Combined-Shape-Copy-4"
         inkscape:connector-curvature="0"
         style="fill:#c4bb86" />
      <path
         d="m 13.904193,68.135686 0,-23.948873 -8.8505035,0 c -0.00419,2.275208 -0.1615218,4.549204 -0.4705984,6.284488 0,0 -1.0353808,5.399878 -1.969307,11.872474 l 5.5213021,-0.263462 c 0,3.160225 0.8924624,5.997894 5.7691068,6.055373 z M 25.192495,62.329185 C 24.259119,55.863067 23.225294,50.471301 23.225294,50.471301 22.916217,48.736017 22.758888,46.462021 22.754695,44.186813 l -8.850502,0 0,23.948873 c 0.05018,5.91e-4 0.100788,8.88e-4 0.151818,8.88e-4 5.009999,0 5.920924,-2.863516 5.920924,-6.056261 l 5.21556,0.248872 z"
         id="Combined-Shape-Copy-7"
         inkscape:connector-curvature="0"
         style="fill:#312e15" />
      <rect
         id="Rectangle-10"
         x="5.2857141"
         y="54.395603"
         width="17.459999"
         height="0.65934068"
         style="fill:#ffffff" />
      <path
         d="m 6.4903924,53.633776 c 0.555374,0 0.8935627,-0.263725 0.8935627,-0.719815 0,-0.769456 -1.1510825,-0.601913 -1.1510825,-0.79738 0,-0.05274 0.034129,-0.09308 0.158235,-0.09308 0.1954669,0 0.4281655,0.06826 0.6081191,0.204775 l 0.335086,-0.443679 C 7.0985114,51.592233 6.7944519,51.496051 6.4562632,51.496051 c -0.5677846,0 -0.8594335,0.335086 -0.8594335,0.685685 0,0.815997 1.1541851,0.614325 1.1541851,0.812894 0,0.08067 -0.1116953,0.111696 -0.2295959,0.111696 -0.2792384,0 -0.511937,-0.117901 -0.6670694,-0.266828 l -0.3257781,0.465397 c 0.2202881,0.19857 0.5212449,0.328881 0.961821,0.328881 z m 1.8181518,0 c -0.4684998,0 -0.8346123,-0.294752 -0.8346123,-0.788073 0,-0.434371 0.3319833,-0.78497 0.8159964,-0.78497 0.4405761,0 0.7787648,0.31647 0.7787648,0.843921 l 0,0.114798 -1.0176687,0 c 0.031027,0.09618 0.1396192,0.189261 0.3226755,0.189261 0.083771,0 0.2699303,-0.04033 0.3443939,-0.10549 l 0.229596,0.344394 c -0.1489271,0.127209 -0.4157549,0.186159 -0.6391456,0.186159 z m 0.229596,-0.968026 c -0.015513,-0.06516 -0.068258,-0.179954 -0.2482119,-0.179954 -0.1706456,0 -0.2264933,0.111695 -0.2451092,0.179954 l 0.4933211,0 z m 1.3310361,0.968026 c 0.4436787,0 0.7105067,-0.217186 0.7105067,-0.51504 0,-0.623632 -0.8501259,-0.4685 -0.8501259,-0.592606 0,-0.04033 0.05895,-0.06516 0.1396192,-0.06516 0.1737487,0 0.3474967,0.07757 0.4405757,0.155132 l 0.204775,-0.36301 c -0.173748,-0.114798 -0.397139,-0.192364 -0.6484534,-0.192364 -0.4343707,0 -0.670172,0.235801 -0.670172,0.505732 0,0.626735 0.8501254,0.443679 0.8501254,0.5864 0,0.03723 -0.03413,0.06516 -0.1489269,0.06516 -0.167543,0 -0.4219601,-0.09618 -0.5398608,-0.189262 L 9.1338487,53.40418 c 0.1613377,0.133414 0.4591919,0.229596 0.7353276,0.229596 z m 2.3362937,-0.03723 -0.558476,0 0,-0.142722 c -0.08377,0.10549 -0.266828,0.179954 -0.452987,0.179954 -0.223391,0 -0.515039,-0.15203 -0.515039,-0.493321 0,-0.372318 0.291648,-0.477808 0.515039,-0.477808 0.195467,0 0.372318,0.06205 0.452987,0.16444 l 0,-0.155132 c 0,-0.10549 -0.09618,-0.186159 -0.279239,-0.186159 -0.139619,0 -0.297854,0.05585 -0.415754,0.145824 l -0.189262,-0.344393 c 0.201672,-0.161338 0.48091,-0.226494 0.707404,-0.226494 0.372318,0 0.735327,0.130311 0.735327,0.629838 l 0,0.905973 z m -0.778764,-0.325778 c 0.08687,0 0.183056,-0.02792 0.220288,-0.08067 l 0,-0.08377 c -0.03723,-0.05275 -0.133414,-0.08067 -0.220288,-0.08067 -0.09308,0 -0.195467,0.03103 -0.195467,0.124106 0,0.09308 0.102387,0.121003 0.195467,0.121003 z m 3.56184,0.325778 0,-1.085927 c 0,-0.310265 -0.186159,-0.449884 -0.462295,-0.449884 -0.242006,0 -0.437473,0.133414 -0.524347,0.263725 -0.06826,-0.186159 -0.220288,-0.263725 -0.431268,-0.263725 -0.242007,0 -0.431268,0.124106 -0.496424,0.207878 l 0,-0.170646 -0.558477,0 0,1.498579 0.558477,0 0,-0.924589 c 0.03723,-0.04344 0.10549,-0.117901 0.226493,-0.117901 0.127209,0 0.170646,0.07757 0.170646,0.167543 l 0,0.874947 0.558477,0 0,-0.924589 c 0.03723,-0.04344 0.10549,-0.117901 0.229596,-0.117901 0.124105,0 0.170645,0.07757 0.170645,0.167543 l 0,0.874947 0.558477,0 z m 1.04249,0.03723 c -0.4685,0 -0.834613,-0.294752 -0.834613,-0.788073 0,-0.434371 0.331984,-0.78497 0.815997,-0.78497 0.440576,0 0.778764,0.31647 0.778764,0.843921 l 0,0.114798 -1.017668,0 c 0.03103,0.09618 0.139619,0.189261 0.322675,0.189261 0.08377,0 0.269931,-0.04033 0.344394,-0.10549 l 0.229596,0.344394 c -0.148927,0.127209 -0.415755,0.186159 -0.639145,0.186159 z m 0.229596,-0.968026 c -0.01551,-0.06516 -0.06826,-0.179954 -0.248212,-0.179954 -0.170646,0 -0.226494,0.111695 -0.245109,0.179954 l 0.493321,0 z m 2.547274,0.968026 c -0.639146,0 -1.132467,-0.434371 -1.132467,-1.070414 0,-0.636043 0.493321,-1.070413 1.132467,-1.070413 0.639145,0 1.132466,0.43437 1.132466,1.070413 0,0.636043 -0.493321,1.070414 -1.132466,1.070414 z m 0,-0.552272 c 0.300957,0 0.496424,-0.229596 0.496424,-0.518142 0,-0.288546 -0.195467,-0.518142 -0.496424,-0.518142 -0.300957,0 -0.496424,0.229596 -0.496424,0.518142 0,0.288546 0.195467,0.518142 0.496424,0.518142 z m 1.622685,-1.092132 c 0.173748,0 0.313367,-0.139619 0.313367,-0.313367 0,-0.173748 -0.139619,-0.313368 -0.313367,-0.313368 -0.173749,0 -0.313368,0.13962 -0.313368,0.313368 0,0.173748 0.139619,0.313367 0.313368,0.313367 z m 0.279238,1.607172 0,-1.498579 -0.558476,0 0,1.498579 0.558476,0 z m 0.868742,0 0,-2.069466 -0.558477,0 0,2.069466 0.558477,0 z"
         id="Sesame-Oil"
         inkscape:connector-curvature="0"
         style="fill:#2e9c30" />
    </g>
  </g>
</svg>
